icon-themes/breeze_svg/cmd/32/managebreakpoints.svg

<svg viewBox="0 0 32 32" xmlns="http://www.w3.org/2000/svg"><path d="m3.9550781 4v24h21.0449219v-1h-20.0449219v-18h15.9999999v-5zm22.9999999 5v8h1v-8zm-13.955078 1c-1.77683 0-2.521484.706366-2.521484 2.509766v2.441406c0 1.1138-.034195 2.404297-1.0156254 2.404297h-.5078125v1.289062h.5078125c.9814804 0 1.0156254 1.290497 1.0156254 2.404297v2.441406c0 1.8034.744654 2.509766 2.521484 2.509766v-1.183594c-1.18455 0-1.201172-.478337-1.201172-2.210937v-2.015625c0-.8309-.204705-2.067378-1.203125-2.580078.99842-.5127 1.203125-1.751032 1.203125-2.582032v-2.033203c0-1.7326.016602-2.210937 1.201172-2.210937zm5.894531 0v1.183594c1.18456 0 1.216797.478337 1.216797 2.210937v2.033203c0 .831.204695 2.069332 1.203125 2.582032-.99843.5127-1.203125 1.749178-1.203125 2.580078v2.015625c0 1.7326-.032197 2.210937-1.216797 2.210937v1.183594c1.77684 0 2.53711-.706366 2.53711-2.509766v-2.441406c0-1.1138.068593-2.404297 1.033203-2.404297h.490234v-1.289062h-.490234c-.96457 0-1.033203-1.290497-1.033203-2.404297v-2.441406c0-1.8034-.76027-2.509766-2.53711-2.509766zm-3.939453 1v2h2v-2zm0 3v11h2v-11zm12.044922 4a1 1 0 0 0 -1 1 1 1 0 0 0 1 1 1 1 0 0 0 1-1 1 1 0 0 0 -1-1zm0 4a1 1 0 0 0 -1 1 1 1 0 0 0 1 1 1 1 0 0 0 1-1 1 1 0 0 0 -1-1zm0 4a1 1 0 0 0 -1 1 1 1 0 0 0 1 1 1 1 0 0 0 1-1 1 1 0 0 0 -1-1z" fill="#4d4d4d"/><path d="m22.955078 4 2.5 5 2.5-5z" fill="#f47750"/></svg>

<svg xmlns="http://www.w3.org/2000/svg" viewBox="0 0 32 32">
 <path 
     style="fill:#4d4d4d" 
     d="M 3.9550781 4 L 3.9550781 28 L 25 28 L 25 27 L 4.9550781 27 L 4.9550781 9 L 20.955078 9 L 20.955078 4 L 3.9550781 4 z M 26.955078 9 L 26.955078 17 L 27.955078 17 L 27.955078 9 L 26.955078 9 z M 13 10 C 11.22317 10 10.478516 10.706366 10.478516 12.509766 L 10.478516 14.951172 C 10.478516 16.064972 10.444321 17.355469 9.4628906 17.355469 L 8.9550781 17.355469 L 8.9550781 18.644531 L 9.4628906 18.644531 C 10.444371 18.644531 10.478516 19.935028 10.478516 21.048828 L 10.478516 23.490234 C 10.478516 25.293634 11.22317 26 13 26 L 13 24.816406 C 11.81545 24.816406 11.798828 24.338069 11.798828 22.605469 L 11.798828 20.589844 C 11.798828 19.758944 11.594123 18.522466 10.595703 18.009766 C 11.594123 17.497066 11.798828 16.258734 11.798828 15.427734 L 11.798828 13.394531 C 11.798828 11.661931 11.81543 11.183594 13 11.183594 L 13 10 z M 18.894531 10 L 18.894531 11.183594 C 20.079091 11.183594 20.111328 11.661931 20.111328 13.394531 L 20.111328 15.427734 C 20.111328 16.258734 20.316023 17.497066 21.314453 18.009766 C 20.316023 18.522466 20.111328 19.758944 20.111328 20.589844 L 20.111328 22.605469 C 20.111328 24.338069 20.079131 24.816406 18.894531 24.816406 L 18.894531 26 C 20.671371 26 21.431641 25.293634 21.431641 23.490234 L 21.431641 21.048828 C 21.431641 19.935028 21.500234 18.644531 22.464844 18.644531 L 22.955078 18.644531 L 22.955078 17.355469 L 22.464844 17.355469 C 21.500274 17.355469 21.431641 16.064972 21.431641 14.951172 L 21.431641 12.509766 C 21.431641 10.706366 20.671371 10 18.894531 10 z M 14.955078 11 L 14.955078 13 L 16.955078 13 L 16.955078 11 L 14.955078 11 z M 14.955078 14 L 14.955078 25 L 16.955078 25 L 16.955078 14 L 14.955078 14 z M 27 18 A 1 1 0 0 0 26 19 A 1 1 0 0 0 27 20 A 1 1 0 0 0 28 19 A 1 1 0 0 0 27 18 z M 27 22 A 1 1 0 0 0 26 23 A 1 1 0 0 0 27 24 A 1 1 0 0 0 28 23 A 1 1 0 0 0 27 22 z M 27 26 A 1 1 0 0 0 26 27 A 1 1 0 0 0 27 28 A 1 1 0 0 0 28 27 A 1 1 0 0 0 27 26 z "
     />
 <path 
     style="fill:#f47750" 
     d="M 22.955078 4 L 25.455078 9 L 27.955078 4 L 22.955078 4 z "
     />
</svg>
